static/img/kroki/288c7cb16e5cd4c2b65857d9dd79f2ca.svg

<?xml version="1.0" encoding="us-ascii" standalone="no"?><svg xmlns="http://www.w3.org/2000/svg" xmlns:xlink="http://www.w3.org/1999/xlink" contentStyleType="text/css" height="374px" preserveAspectRatio="none" style="width:173px;height:374px;" version="1.1" viewBox="0 0 173 374" width="173px" zoomAndPan="magnify"><defs/><g><!--class gcp_operation--><g id="elem_gcp_operation"><rect codeLine="23" fill="#3D176E" height="39.7891" id="gcp_operation" rx="2.5" ry="2.5" style="stroke:#000D19;stroke-width:0.5;" width="159" x="7" y="328.58"/><ellipse cx="22" cy="348.4745" fill="#ADD1B2" rx="11" ry="11" style="stroke:#181818;stroke-width:1.0;"/><path d="M24.9688,354.1152 Q24.3906,354.412 23.75,354.5527 Q23.1094,354.7089 22.4063,354.7089 Q19.9063,354.7089 18.5781,353.0683 Q17.2656,351.412 17.2656,348.287 Q17.2656,345.162 18.5781,343.5058 Q19.9063,341.8495 22.4063,341.8495 Q23.1094,341.8495 23.75,342.0058 Q24.4063,342.162 24.9688,342.4589 L24.9688,345.1777 Q24.3438,344.5995 23.75,344.3339 Q23.1563,344.0527 22.5313,344.0527 Q21.1875,344.0527 20.5,345.1308 Q19.8125,346.1933 19.8125,348.287 Q19.8125,350.3808 20.5,351.4589 Q21.1875,352.5214 22.5313,352.5214 Q23.1563,352.5214 23.75,352.2558 Q24.3438,351.9745 24.9688,351.3964 L24.9688,354.1152 Z " fill="#000000"/><text fill="#D9B8FF" font-family="Helvetica" font-size="17" lengthAdjust="spacing" textLength="117" x="41" y="354.3598">gcp_operation</text></g><!--class gcp_resource--><g id="elem_gcp_resource"><rect codeLine="26" fill="#3D176E" height="39.7891" id="gcp_resource" rx="2.5" ry="2.5" style="stroke:#000D19;stroke-width:0.5;" width="150" x="11.5" y="167.79"/><ellipse cx="26.5" cy="187.6845" fill="#ADD1B2" rx="11" ry="11" style="stroke:#181818;stroke-width:1.0;"/><path d="M29.4688,193.3252 Q28.8906,193.622 28.25,193.7627 Q27.6094,193.9189 26.9063,193.9189 Q24.4063,193.9189 23.0781,192.2783 Q21.7656,190.622 21.7656,187.497 Q21.7656,184.372 23.0781,182.7158 Q24.4063,181.0595 26.9063,181.0595 Q27.6094,181.0595 28.25,181.2158 Q28.9063,181.372 29.4688,181.6689 L29.4688,184.3877 Q28.8438,183.8095 28.25,183.5439 Q27.6563,183.2627 27.0313,183.2627 Q25.6875,183.2627 25,184.3408 Q24.3125,185.4033 24.3125,187.497 Q24.3125,189.5908 25,190.6689 Q25.6875,191.7314 27.0313,191.7314 Q27.6563,191.7314 28.25,191.4658 Q28.8438,191.1845 29.4688,190.6064 L29.4688,193.3252 Z " fill="#000000"/><text fill="#D9B8FF" font-family="Helvetica" font-size="17" lengthAdjust="spacing" textLength="108" x="45.5" y="193.5698">gcp_resource</text></g><!--class resource--><g id="elem_resource"><rect codeLine="29" fill="#3D176E" height="39.7891" id="resource" rx="2.5" ry="2.5" style="stroke:#000D19;stroke-width:0.5;" width="113" x="30" y="7"/><ellipse cx="45" cy="26.8945" fill="#ADD1B2" rx="11" ry="11" style="stroke:#181818;stroke-width:1.0;"/><path d="M47.9688,32.5352 Q47.3906,32.832 46.75,32.9727 Q46.1094,33.1289 45.4063,33.1289 Q42.9063,33.1289 41.5781,31.4883 Q40.2656,29.832 40.2656,26.707 Q40.2656,23.582 41.5781,21.9258 Q42.9063,20.2695 45.4063,20.2695 Q46.1094,20.2695 46.75,20.4258 Q47.4063,20.582 47.9688,20.8789 L47.9688,23.5977 Q47.3438,23.0195 46.75,22.7539 Q46.1563,22.4727 45.5313,22.4727 Q44.1875,22.4727 43.5,23.5508 Q42.8125,24.6133 42.8125,26.707 Q42.8125,28.8008 43.5,29.8789 Q44.1875,30.9414 45.5313,30.9414 Q46.1563,30.9414 46.75,30.6758 Q47.3438,30.3945 47.9688,29.8164 L47.9688,32.5352 Z " fill="#000000"/><text fill="#D9B8FF" font-family="Helvetica" font-size="17" lengthAdjust="spacing" textLength="71" x="64" y="32.7798">resource</text></g><!--reverse link gcp_resource to gcp_operation--><g id="link_gcp_resource_gcp_operation"><path codeLine="32" d="M86.5,225.84 C86.5,256.36 86.5,297.69 86.5,328.25 " fill="none" id="gcp_resource-backto-gcp_operation" style="stroke:#FFAF37;stroke-width:2.0;"/><polygon fill="none" points="86.5,207.84,80.5,225.84,92.5,225.84,86.5,207.84" style="stroke:#FFAF37;stroke-width:2.0;"/></g><!--reverse link resource to gcp_resource--><g id="link_resource_gcp_resource"><path codeLine="33" d="M86.5,65.05 C86.5,95.57 86.5,136.9 86.5,167.46 " fill="none" id="resource-backto-gcp_resource" style="stroke:#FFAF37;stroke-width:2.0;"/><polygon fill="none" points="86.5,47.05,80.5,65.05,92.5,65.05,86.5,47.05" style="stroke:#FFAF37;stroke-width:2.0;"/></g><!--SRC=[XP1BJyCm48Jl_XMMUewKK44QYKk9XE1I8SeTEVQwiP9uexL3LHx_7K8fSf8-hZEVPcQtD0euDAtVyGQQ0iWnLndR2X8DNnBXDiSQYS-q5dgUZirxjFuYi18Dy0Uety0RASR4IsbaPS4vVXLOTq9M6yBEgdsy9s7TZmNM1rHU2-UMtfCfEW_169KL2wt7v3XqDbT9UWCJ34a1_I5n7Aia6oCNgyxU_K-ipJlm97pQ2ZrCPaugVgcpAtiY63avzE2VtFWab39smwy3xNc_YIpGG5-NGk6sfxMeNLZZF12WtxMGJww2RA5qUXH-F0KpsR-ERsJxYYsGy0Oj_s3iAp0877Oa8TI7se2w_OoYQ9Z8ZfW7YNq3]--></g></svg>

<svg xmlns="http://www.w3.org/2000/svg" width="173" height="374" viewBox="0 0 173 374"><rect width="159" height="39.789" x="7" y="328.58" fill="#3D176E" rx="2.5" ry="2.5" style="stroke:#000d19;stroke-width:.5"/><circle cx="22" cy="348.474" r="11" fill="#ADD1B2" style="stroke:#181818;stroke-width:1"/><path d="M24.969 354.115q-.578.297-1.219.438-.64.156-1.344.156-2.5 0-3.828-1.64-1.312-1.657-1.312-4.782t1.312-4.781q1.328-1.656 3.828-1.656.703 0 1.344.156.656.156 1.219.453v2.719q-.625-.579-1.219-.844-.594-.281-1.219-.281-1.343 0-2.031 1.078-.687 1.062-.687 3.156t.687 3.172q.688 1.062 2.031 1.062.625 0 1.219-.265.594-.281 1.219-.86z"/><text x="41" y="354.36" fill="#D9B8FF" font-family="Helvetica" font-size="17" textLength="117">gcp_operation</text><rect width="150" height="39.789" x="11.5" y="167.79" fill="#3D176E" rx="2.5" ry="2.5" style="stroke:#000d19;stroke-width:.5"/><circle cx="26.5" cy="187.685" r="11" fill="#ADD1B2" style="stroke:#181818;stroke-width:1"/><path d="M29.469 193.325q-.578.297-1.219.438-.64.156-1.344.156-2.5 0-3.828-1.64-1.312-1.657-1.312-4.782t1.312-4.781q1.328-1.656 3.828-1.656.703 0 1.344.156.656.156 1.219.453v2.719q-.625-.578-1.219-.844-.594-.281-1.219-.281-1.343 0-2.031 1.078-.687 1.062-.687 3.156t.687 3.172q.688 1.062 2.031 1.062.625 0 1.219-.265.594-.281 1.219-.86z"/><text x="45.5" y="193.57" fill="#D9B8FF" font-family="Helvetica" font-size="17" textLength="108">gcp_resource</text><rect width="113" height="39.789" x="30" y="7" fill="#3D176E" rx="2.5" ry="2.5" style="stroke:#000d19;stroke-width:.5"/><circle cx="45" cy="26.895" r="11" fill="#ADD1B2" style="stroke:#181818;stroke-width:1"/><path d="M47.969 32.535q-.578.297-1.219.438-.64.156-1.344.156-2.5 0-3.828-1.64-1.312-1.657-1.312-4.782t1.312-4.781q1.328-1.656 3.828-1.656.703 0 1.344.156.656.156 1.219.453v2.719q-.625-.578-1.219-.844-.594-.281-1.219-.281-1.343 0-2.031 1.078-.687 1.062-.687 3.156t.687 3.172q.688 1.062 2.031 1.062.625 0 1.219-.265.594-.281 1.219-.86z"/><text x="64" y="32.78" fill="#D9B8FF" font-family="Helvetica" font-size="17" textLength="71">resource</text><path fill="none" d="M86.5 225.84v102.41m0-120.41-6 18h12zm0-142.79v102.41m0-120.41-6 18h12z" style="stroke:#ffaf37;stroke-width:2"/></svg>
